!!!COM: Scriabin, Alexander
!!!OTL: Scherzo
!!!OPS: 46
!!!ODT: 1905
!!!AGN: Scherzo
**kern	**kern	**dynam
*staff2	*staff1	*staff1/2
*Ipiano	*Ipiano	*
*clefF4	*clefG2	*
*k[]	*k[]	*
*C:	*C:	*
*M6/8	*M6/8	*
4AAA-X 4AA-X	8G-XL 8c 8d	.
.	8G- 8c 8e-X	.
16r	8G-J 8c 8en	.
16AAA- 16AA-	.	.
=1	=1	=1
4.DD-X 4.D-X	8FL 8c-X 8f	.
.	8c- 8f 8gn	.
.	8c-J 8f 8a-X	.
4.GG-X 4.G-X	8B-XL 8e 8b-X	.
.	8e 8b- 8ccn	.
.	8eJ 8b- 8dd-X	.
=2	=2	=2
*	*^	*
4.C 4.B-X	4.e 4.ddn	8anL	.
.	.	8f#X	.
.	.	8gJ	.
4EE-X 4E-X	8d-XL 8g 8a	4.rc	.
.	8d- 8g 8b-X	.	.
16r	8d-J 8g 8bn	.	.
16EE- 16E-	.	.	.
*	*v	*v	*
=3	=3	=3
4.AA-X 4.A-X	8cL 8g-X 8cc	.
.	8g- 8cc 8ddn	.
.	8g-J 8cc 8ee-X	.
4.D-X 4.d-X	8fnL 8b 8ffn	.
.	8b 8ff 8ggn	.
.	8bJ 8ff 8aa-X	.
=4	=4	=4
*	*^	*
8.FL 8.B 8.f	8eenL	4.b 4.aan	.
.	8cc#X	.	.
8.GGJ	.	.	.
.	8ddJ	.	.
4.G 4.f	4gg	8bL 8ee-X	.
.	.	8b 8dd	.
.	16raa	8bJ 8ee-	.
.	16gg	.	.
=5	=5	=5	=5
4E-X 4d-X 4g	4.ccn 4.cccn	8eenL	.
.	.	8ffJ	.
8r	.	8rc	.
8r	4.ff 4.fff	4rc	.
8E-L	.	.	.
8d-J	.	8rc	.
*	*v	*v	*
=6	=6	=6
8gL	4.b 4.bb	.
8dd-X	.	.
8ffJ	.	.
8EE-X 8E-X	8d-XL 8g 8a	.
8r	8d- 8g 8b-X	.
8r	8d-J 8g 8bn	.
=7	=7	=7
8EE-XL 8E-X	4.d-X 4.g 4.b 4.ff	.
8AAA-XJ 8AA-X	.	.
8r	.	.
4r	4.d- 4.g 4.b	.
8r	.	.
=8	=8	=8
*	*^	*
8EE-XL 8E-X	4.c 4.a-X 4.cc 4.ee-X	4.rc	.
8AAA-XJ 8AA-X	.	.	.
8r	.	.	.
4.F 4.e-X	4ff	8anL 8b	.
.	.	8a 8cc	.
.	16raa	8aJ 8cc#X	.
.	16ff	.	.
=9	=9	=9	=9
4D-X 4c-X 4f	4.b-X 4.bb-X	8ddnL	.
.	.	8ee-XJ	.
8r	.	8rc	.
8r	4.ee- 4.eee-X	4rc	.
8D-L	.	.	.
8c-J	.	8rc	.
*	*v	*v	*
=10	=10	=10
8fL	4.a 4.aa	.
8cc-X	.	.
8ee-XJ	.	.
4r	4ee-X 4eee-X	.
8r	16r	.
.	16ee- 16eee-	.
=11	=11	=11
*	*^	*
8FL 8B 8f	4.een 4.eeen	4.ff 4.bb	.
8GGJ	.	.	.
8r	.	.	.
4r	4.aa 4.aaa	4rc	.
8r	.	8rc	.
*	*v	*v	*
=12	=12	=12
4r	4.dd#X 4.ddd#X	.
8r	.	.
4GGG 4GG	8FL 8B 8dn	.
.	8F 8B 8d#X	.
16r	8FJ 8B 8e	.
16GGG 16GG	.	.
=13	=13	=13
4.DD-X 4.D-X	8FL 8c-X 8f	.
.	8c- 8f 8gn	.
.	8c-J 8f 8a-X	.
4.GG-X 4.G-X	8B-XL 8e 8b-X	.
.	8e 8b- 8ccn	.
.	8eJ 8b- 8dd-X	.
=14	=14	=14
*	*^	*
4.C 4.B-X	4.e 4.ddn	8anL	.
.	.	8f#X	.
.	.	8gJ	.
8.G-XL 8.c 8.g-X	8dL 8cc 8dd	4.rc	.
.	8e-X 8cc 8ee-X	.	.
8.AAA-XJ 8.AA-X	.	.	.
.	8enJ 8cc 8een	.	.
=15	=15	=15	=15
8.FL 8.c-X 8.f	8fnL 8cc-X 8ffn	4.rc	.
.	8g 8cc- 8ff 8gg	.	.
8.DD-XJ 8.D-X	.	.	.
.	8a-XJ 8cc- 8ff 8aa-X	.	.
8.FL 8.Bn 8.f	4.an 4.b 4.aan	8eeL	.
.	.	8cc#X	.
8.GGGJ 8.GG	.	.	.
.	.	8ddJ	.
=16	=16	=16	=16
*^	*	*	*
8F#XL	4E 4cn 4e	4ccn 4ee 4cccn	8aa-XL	.
8G	.	.	8ggJ	.
[8CCJ [8C	8rEE	4.E-X 4.A-X 4.e-X	8rc	.
4.CC_ 4.C_	4.rEE	.	4.rc	.
.	.	8raa	.	.
*v	*v	*	*	*
=17	=17	=17	=17
*	*	*^	*
4.CC] 4.C]	4.F 4.A-X 4.e-X 4.f	4.rc	4.r	.
8CCL 8C	8a-XL	4f	4.d-X\	.
8BBB-X 8BB-X	8.b-X	.	.	.
8FFFJ 8FF	.	8a-	.	.
.	16dd-XJk	.	.	.
*	*	*v	*v	*
=18	=18	=18	=18
4.FF 4.F	4cc	4.d-X 4.a-X	.
.	8b-X	.	.
[4.FF [4.F	4.A-X 4.d- 4.a-	4.rc	.
=19	=19	=19	=19
4.FF] 4.F]	4.B-X 4.d-X 4.a-X 4.b-X	4.rc	.
4.BBB-X 4.BB-X	8ffL	4a- 4dd-X	.
.	8.gg	.	.
.	.	[8d- 8a-	.
.	16b-Jk	.	.
=20	=20	=20	=20
4EE-X 4E-X	2.ryy	8d-L] 8g 8cc	.
.	.	[8G 8d-X 8f	.
8DD-X 8D-X	.	8GJ] 8c 8f-X 8g	.
[4.CC [4.C	.	4.E-X 4.A-X 4.e-X	.
=21	=21	=21	=21
*	*	*^	*
4.CC] 4.C]	4.Fn 4.A-X 4.e-X 4.fn	4.rb	4.r	.
8CCL 8C	8a-XL	4f	4.d-X\	.
8BBB-X 8BB-X	8.b-X	.	.	.
8FFFJ 8FF	.	8a-	.	.
.	16dd-XJk	.	.	.
*	*	*v	*v	*
=22	=22	=22	=22
4.FF 4.F	4cc	4.d-X 4.a-X	.
.	8b-X	.	.
8BBB-XL 8BB-X	4dn 4a- 4b- 4ff	4.rc	.
8A-XJ 8B-X 8d	.	.	.
8r	8raa	.	.
*	*v	*v	*
=23	=23	=23
4r	4r	.
8BBB-X 8BB-X	8A-X 8B-X 8d 8f	.
4BBB- 4BB-	4A- 4B- 4d 4f	.
8EEE-X 8EE-X	8G 8B- 8d 8g	.
=24	=24	=24
*	*^	*
8AAAnL 8AAn	4G 4e-X	8cL	.
8BBB-X 8BB-X	.	8B-XJ	.
[8CC-XJ [8C-X	8raa	8rc	.
8CC-L] 8C-]	4G-X 4B- 4e- 4g-X	4.rc	.
8EEE-X 8EE-X	.	.	.
[8C-J [8G-X [8c-X	[8B- [8e- [8g- [8b-X	.	.
*	*v	*v	*
=25	=25	=25
8C-] 8G-] 8c-]	8B-] 8e-] 8g-] 8b-]	.
4EE-X 4C-X	4G-X 4B-X 4e-X 4g-X	.
4EE- 4C-	4G- 4B- 4e- 4g-	.
8EE- 8C-	8G- 8B- 8e- 8g-	.
=26	=26	=26
8EE-XL 8C-X	8G-XL 8B-X 8g-X	.
8EE- 8Cn	8FJ 8A 8f	.
[8BBB--J [8BB--	8r	.
8BBB--L] 8BB--]	4F-X 4A-X 4d-X 4f-X	.
8DDD-X 8DD-X	.	.
[8BB--J [8F-X [8B--	[8A- [8d- [8f- [8a-X	.
=27	=27	=27
8BB--] 8F-] 8B--]	8A-] 8d-] 8f-] 8a-]	.
4DD-X 4BB--	4F-X 4A-X 4d-X 4f-X	.
4DD- 4BB--	4F- 4A- 4d- 4f-	.
8DD- 8BB--	8F- 8A- 8d- 8f-	.
=28	=28	=28
4DD-X 4BB--	4F-X 4A-X 4f-X	.
8DD- 8BB-X	8E-X 8G 8e-X	.
[4.CC [4.C	4.E- 4.A- 4.e-	.
=29	=29	=29
*	*^	*
*	*	*^	*
4.CC] 4.C]	4.Fn 4.A-X 4.e-X 4.fn	4.rb	4.r	.
8CCL 8C	8a-XL	4f	4.d-X\	.
8BBB-X 8BB-X	8.b-X	.	.	.
8FFFJ 8FF	.	8a-	.	.
.	16dd-XJk	.	.	.
*	*	*v	*v	*
=30	=30	=30	=30
4.FF 4.F	4cc	4.d-X 4.a-X	.
.	8b-X	.	.
8BBB-XL 8BB-X	4f 4a- 4dd-X 4ff	4.rc	.
8FJ 8A-X 8d-X	.	.	.
8r	8raa	.	.
*	*v	*v	*
=31	=31	=31
4r	4r	.
8EE-X 8E-X	8d-X 8e-X 8g 8b-X	.
4EE- 4E-	4d- 4e- 4g 4b-	.
8AAA-X 8AA-X	8c 8e- 8g 8cc	.
=32	=32	=32
*	*^	*
4DDn 4Dn	4.c 4.a-X	4f	.
8EE-X 8E-X	.	8e-X	.
8BBB-XL 8BB-X	4a- 4dd-X 4ff 4aa-X	4.rc	.
8FJ 8A-X 8d-X 8f	.	.	.
8r	8raa	.	.
*	*v	*v	*
=33	=33	=33
4r	4r	.
8EE-X 8E-X	8d-X 8e-X 8g 8b-X	.
4EE- 4E-	4d- 4e- 4g 4b-	.
8AAA-X 8AA-X	8c 8e- 8g 8cc	.
=34	=34	=34
*	*^	*
4DDn 4Dn	4.c 4.a-X	4f	.
8EE-X 8E-X	.	8e-X	.
4DD 4D	4.c 4.a-	4f	.
8EE- 8E-	.	8e-	.
=35	=35	=35	=35
4DD 4D	4.c 4.a-X	4f	.
8EE-X 8E-X	.	8e-X	.
4DD 4D	4.c 4.a-	4f	.
8EE- 8E-	.	8e-	.
*	*v	*v	*
=36	=36	=36
8DDL 8D	8cL 8f 8a-X	.
8DDJ 8D	8cJ 8f#X 8an	.
8r	8r	.
4r	4r	.
8r	8r	.
=37||	=37||	=37||
4r	4r	.
8r	8r	.
4AAA-X 4AA-X	8G-XL 8c 8d	.
.	8G- 8c 8e-X	.
16r	8G-J 8c 8en	.
16AAA- 16AA-	.	.
=38	=38	=38
4.DD-X 4.D-X	8FL 8c-X 8f	.
.	8c- 8f 8gn	.
.	8c-J 8f 8a-X	.
4.GG-X 4.G-X	8B-XL 8e 8b-X	.
.	8e 8b- 8ccn	.
.	8eJ 8b- 8dd-X	.
=39	=39	=39
*	*^	*
4.C 4.B-X	4.e 4.ddn	8anL	.
.	.	8f#X	.
.	.	8gJ	.
4EE-X 4E-X	8d-XL 8g 8a	4.rc	.
.	8d- 8g 8b-X	.	.
16r	8d-J 8g 8bn	.	.
16EE- 16E-	.	.	.
*	*v	*v	*
=40	=40	=40
4.AA-X 4.A-X	8cL 8g-X 8cc	.
.	8g- 8cc 8ddn	.
.	8g-J 8cc 8ee-X	.
4.D-X 4.d-X	8fnL 8b 8ffn	.
.	8b 8ff 8ggn	.
.	8bJ 8ff 8aa-X	.
=41	=41	=41
*	*^	*
8.FL 8.B 8.f	8eenL	4.b 4.aan	.
.	8cc#X	.	.
8.GGJ	.	.	.
.	8ddJ	.	.
4.G 4.f	4gg	8bL 8ee-X	.
.	.	8b 8dd	.
.	16raa	8bJ 8ee-	.
.	16gg	.	.
=42	=42	=42	=42
4E-X 4d-X 4g	4.ccn 4.cccn	8eenL	.
.	.	8ffJ	.
8r	.	8rc	.
8r	4.ff 4.fff	4rc	.
8E-L	.	.	.
8d-J	.	8rc	.
*	*v	*v	*
=43	=43	=43
8gL	4.b 4.bb	.
8dd-X	.	.
8ffJ	.	.
8EE-X 8E-X	8d-XL 8g 8a	.
8r	8d- 8g 8b-X	.
8r	8d-J 8g 8bn	.
=44	=44	=44
8EE-XL 8E-X	4.d-X 4.g 4.b 4.ff	.
8AAA-XJ 8AA-X	.	.
8r	.	.
4r	4.d- 4.g 4.b	.
8r	.	.
=45	=45	=45
*	*^	*
8EE-XL 8E-X	4.c 4.a-X 4.cc 4.ee-X	4.rc	.
8AAA-XJ 8AA-X	.	.	.
8r	.	.	.
4.F 4.e-X	4ff	8anL 8b	.
.	.	8a 8cc	.
.	16raa	8aJ 8cc#X	.
.	16ff	.	.
=46	=46	=46	=46
4D-X 4c-X 4f	4.b-X 4.bb-X	8ddnL	.
.	.	8ee-XJ	.
8r	.	8rc	.
8r	4.ee- 4.eee-X	4rc	.
8D-L	.	.	.
8c-J	.	8rc	.
*	*v	*v	*
=47	=47	=47
8fL	4.a 4.aa	.
8cc-X	.	.
8ee-XJ	.	.
4r	4ee-X 4eee-X	.
8r	16r	.
.	16ee- 16eee-	.
=48	=48	=48
*	*^	*
8FL 8B 8f	4.een 4.eeen	4.ff 4.bb	.
8GGJ	.	.	.
8r	.	.	.
4r	4.aa 4.aaa	4rc	.
8r	.	8rc	.
*	*v	*v	*
=49	=49	=49
4r	4.dd#X 4.ddd#X	.
8r	.	.
4GGG 4GG	8FL 8B 8dn	.
.	8F 8B 8d#X	.
16r	8FJ 8B 8e	.
16GGG 16GG	.	.
=50	=50	=50
4.DD-X 4.D-X	8FL 8c-X 8f	.
.	8c- 8f 8gn	.
.	8c-J 8f 8a-X	.
4.GG-X 4.G-X	8B-XL 8e 8b-X	.
.	8e 8b- 8ccn	.
.	8eJ 8b- 8dd-X	.
=51	=51	=51
*	*^	*
4.C 4.B-X	4.e 4.ddn	8anL	.
.	.	8f#X	.
.	.	8gJ	.
8.G-XL 8.c 8.g-X	8dL 8cc 8dd	4.rc	.
.	8e-X 8cc 8ee-X	.	.
8.AAA-XJ 8.AA-X	.	.	.
.	8enJ 8cc 8een	.	.
*	*v	*v	*
=52	=52	=52
8.FnL 8.d-X 8.fn	4.a-X 4.dd-X 4.aa-X	.
8.DD-XJ 8.D-X	.	.
8.G-XL 8.c 8.g-X	8gnL 8ee-X 8ggn	.
.	8a- 8ee- 8aa-	.
8.AAA-XJ 8.AA-X	.	.
.	8anJ 8een 8aan	.
=53	=53	=53
8.FL 8.A-X 8.d-X 8.f	4.ff 4.aa-X 4.ddd-X 4.fff	.
8.DDD-XJ 8.DD-X	.	.
4r	4r	.
8r	8r	.
=54||	=54||	=54||
*	*^	*
4r	4raa	4rc	.
8r	8raa	8rc	.
4.DD-X	8d-XL	4.F 4.c-X	.
.	8dn	.	.
.	8e-XJ	.	.
*	*v	*v	*
=55	=55	=55
[2.GGG [2.GG	4.F 4.B 4.d#X 4.a	.
.	[4.F [4.B [4.d#	.
=56	=56	=56
4.GGG] 4.GG]	4.F] 4.B] 4.d#]	.
4.GGG 4.GG	4.F 4.B 4.e	.
=57	=57	=57
2.CCC 2.CC 2.GG	2.E 2.c 2.e 2.g	.
==	==	==
*-	*-	*-
!!!system-decoration: {(*)}
!!!ENC: Bryan Jacob Bell
!!!END: November 2021 to April 2022
!!!PED: Günter Philipp
!!!PTL: Ausgewählte Klavierwerke (Edition Peters)
